public/svg/androidIcon.svg

<svg xmlns="http://www.w3.org/2000/svg" width="56" height="56" viewBox="0 0 56 56" fill="none">
<rect width="56" height="56" fill="#C4C4C4" fill-opacity="0.01"/>
<path d="M9.33301 23.3333V37.3333" stroke="#1B5BF7" stroke-width="3.5" stroke-linecap="round" stroke-linejoin="round"/>
<path d="M46.667 23.3333V37.3333" stroke="#1B5BF7" stroke-width="3.5" stroke-linecap="round" stroke-linejoin="round"/>
<path d="M16.333 20.9999H39.6663V39.6666C39.6663 40.2854 39.4205 40.8789 38.9829 41.3165C38.5453 41.7541 37.9518 41.9999 37.333 41.9999H18.6663C18.0475 41.9999 17.454 41.7541 17.0164 41.3165C16.5788 40.8789 16.333 40.2854 16.333 39.6666V20.9999ZM16.333 20.9999C16.333 17.9057 17.5622 14.9383 19.7501 12.7503C21.938 10.5624 24.9055 9.33325 27.9997 9.33325C31.0939 9.33325 34.0613 10.5624 36.2493 12.7503C38.4372 14.9383 39.6663 17.9057 39.6663 20.9999" stroke="#1B5BF7" stroke-width="3.5" stroke-linecap="round" stroke-linejoin="round"/>
<path d="M18.667 7L21.0003 11.6667" stroke="#1B5BF7" stroke-width="3.5" stroke-linecap="round" stroke-linejoin="round"/>
<path d="M37.3333 7L35 11.6667" stroke="#1B5BF7" stroke-width="3.5" stroke-linecap="round" stroke-linejoin="round"/>
<path d="M21 42V49" stroke="#1B5BF7" stroke-width="3.5" stroke-linecap="round" stroke-linejoin="round"/>
<path d="M35 42V49" stroke="#1B5BF7" stroke-width="3.5" stroke-linecap="round" stroke-linejoin="round"/>
</svg>

<svg xmlns="http://www.w3.org/2000/svg" width="56" height="56" fill="none" xmlns:v="https://vecta.io/nano"><path fill="#c4c4c4" fill-opacity=".01" d="M0 0h56v56H0z"/><g stroke="#1b5bf7" stroke-width="3.5" stroke-linecap="round" stroke-linejoin="round"><path d="M9.333 23.333v14m37.334-14v14M16.333 21h23.333v18.667c0 .619-.246 1.212-.683 1.65a2.33 2.33 0 0 1-1.65.683H18.666c-.619 0-1.212-.246-1.65-.683a2.33 2.33 0 0 1-.683-1.65V21zm0 0A11.67 11.67 0 0 1 28 9.333a11.67 11.67 0 0 1 8.25 3.417c2.188 2.188 3.417 5.155 3.417 8.25"/><path d="M18.667 7L21 11.667M37.333 7L35 11.667M21 42v7m14-7v7"/></g></svg>
